X:24
T:Mrs Casey,aka. WI.024
T:Quadrille No5. WI.024
M:6/8
L:1/8
Q:3/8=120
C:Untitled in MS.”Quadrille No5″
S:Wm Irwin, 1838 MS, AGG’s Transcription
R:.Jig
O:England
A:Lake District
Z:vmp.Chris Partington.2005
K:C
e/d/|c2A ABA|G2G GAG|c2A ABA|f3 e2d|!
c2A ABA|G2G G2G|ABc dcB|c3-c2||!
G|c2d e2f|g2a g2e|c2d e2f|g3 e2g|!
a2f g2e|f2d e2d|c2A ABA|” DC”f3e2|]

